X: 145121
M: C
L: 1/8
K: A
(3(uEFG) |\
f>ec>A B>AF>E | B>cB>A F2 (3(EFG) |\
f>ec>A B>AF>E | A2A2A2 |]
ue2 |\
e>fe>c A>ca>g | f>ed>c d>ef>g |\
a>gf>e f>ed>c | B>Ac>A F2 (3(EFG) |\
f>ec>A B>AF>E | A2A2A2 |]


